X:466
T: DA DRUNTEN IN JENEM THALE
N: E0419
O: Europa, Mitteleuropa, Deutschland
R: Liebes - Lied, Abschied
M: 6/8
L: 1/16
K: G
D2 | G3FG2A2G2A2 | B4A2G4
GA | B3cd2d2c2B2 | A6z4
c2 | B2c2d2d2c2B2 | c3de2d4
c2 | B2A2G2A2G2A2 | G6z4

@@@ Tune index: 4116
